public/svg_assets/kssLogo.svg

<svg width="279" height="317" viewBox="0 0 279 317" fill="none" xmlns="http://www.w3.org/2000/svg">
<path d="M218.685 268.624L143.387 134.98L223.195 48.3755H246.817V20.9756H171.073V48.3755H191.287L82.2736 166.654V48.3755H108.832V20.9756H21.2646V48.3755H47.8233V268.624H21.2646V296.024H108.832V268.624H82.2736V201.291L123.567 156.507L202.168 296.024H258.012V268.624H218.685Z" fill="#A1A1A1"/>
<path d="M258.012 247.648H230.929L169.16 137.97L232.397 69.3519H267.791V0H150.073V62.1152L103.222 112.93V69.3519H129.781V0H0.290527V69.3519H26.8492V247.648H0.290527V317H129.807V247.648H103.248V209.472L119.424 191.904L183.868 306.302L189.872 316.974H278.96V247.622H257.986L258.012 247.648ZM265.877 268.624V303.89H197.554L195.299 299.878L122.02 169.775L90.1654 204.359V260.758H116.724V303.89H13.3995V260.758H39.9582V56.2419H13.3995V13.11H116.698V56.2419H90.1391V146.491L173.328 56.2419H163.208V13.11H254.709V56.2419H226.682L153.088 136.108L223.3 260.758H265.904V268.624H265.877Z" fill="#A1A1A1"/>
</svg>

<svg width="279" height="317" fill="none" xmlns="http://www.w3.org/2000/svg">
    <path d="M218.685 268.624 143.387 134.98l79.808-86.604h23.622v-27.4h-75.744v27.4h20.214L82.274 166.654V48.376h26.558v-27.4H21.265v27.4h26.558v220.248H21.265v27.4h87.567v-27.4H82.274v-67.333l41.293-44.784 78.601 139.517h55.844v-27.4h-39.327Z" fill="#A1A1A1"/>
    <path d="M258.012 247.648h-27.083L169.16 137.97l63.237-68.618h35.394V0H150.073v62.115l-46.851 50.815V69.352h26.559V0H.291v69.352h26.558v178.296H.291V317h129.516v-69.352h-26.559v-38.176l16.176-17.568 64.444 114.398 6.004 10.672h89.088v-69.352h-20.974l.026.026Zm7.865 20.976v35.266h-68.323l-2.255-4.012-73.279-130.103-31.855 34.584v56.399h26.559v43.132H13.399v-43.132h26.56V56.242h-26.56V13.11h103.299v43.132H90.139v90.249l83.189-90.25h-10.12V13.11h91.501v43.132h-28.027l-73.594 79.866 70.212 124.65h42.604v7.866h-.027Z" fill="#A1A1A1"/>
</svg>
